X:1
T:[ID 3-7b]
T:[ID 3-7b]
T:Bezeichnung standardisiert: March March Primo In dieser Quelle auch als: Marsch
T:Urheber unbekannt Erstbeleg: 1767 (Datum in der schriftlichen Quelle) Datum in der hier transkribierten schriftlichen Quelle: 1792
C:Urheber unbekannt
C:Erstbeleg: 1767 (Datum in der schriftlichen Quelle)
C:Datum in der hier transkribierten schriftlichen Quelle: 1792
%%score 1 2
L:1/8
M:4/4
K:D
V:1 treble nm="Primo"
V:2 treble nm="Secondo"
V:1
 d2 DDFFAA | dfec d2 f2 | edcB ABcd | e2 ee e4 :: A3 a (ag)(gf) | A2 z g (gf)(fe) | dbag Tf2 ec | %7
 d2 dd d4 :| %8
V:2
 !fermata!F2 FFDDFF | FAGE F2 d2 | cBA^G AGAB | c2 cc c4 :: A2 z f (fe)(ed) | A2 z e (ed)(dc) | %6
 Bgfe d2 AG | F2 FF F4 :| %8

